dist/upp/assets/img/cases/1.svg

<svg width="27" height="24" viewBox="0 0 27 24" fill="none" xmlns="http://www.w3.org/2000/svg">
<g id="8665838_spa_relax_icon 1">
<path id="Vector" d="M17.2902 13.5838L17.2983 13.5764L17.3061 13.5689C20.269 10.7158 24.1548 10.1307 25.9719 10.0226C25.8462 11.7168 25.2012 15.2437 22.1793 17.9194L22.1616 17.935L22.1446 17.9515C18.5402 21.4606 15.0228 21.4587 13.5628 21.4579C13.5414 21.4579 13.5205 21.4579 13.5 21.4579C13.4664 21.4579 13.4315 21.458 13.3956 21.458C11.9017 21.4602 8.42225 21.4652 4.85761 17.996L4.84274 17.9815L4.82729 17.9677C1.80093 15.2574 1.15601 11.723 1.02886 10.0238C2.84717 10.1347 6.73157 10.7241 9.69043 13.6082L9.70586 13.6233L9.72193 13.6376C11.1405 14.9059 12.0109 16.3467 12.5751 17.7193L13.4996 19.9687L14.4248 17.7196C14.9887 16.349 15.859 14.903 17.2902 13.5838ZM14.8851 11.0869C14.3925 11.5286 13.9286 12.008 13.4988 12.5238C13.0603 11.9961 12.5848 11.4995 12.0756 11.0374C11.335 10.3185 10.555 9.7219 9.76608 9.21709C10.5128 6.53477 11.8613 4.20674 13.5031 2.64915C15.1446 4.20874 16.4931 6.54179 17.2401 9.2249C16.4327 9.7401 15.637 10.3526 14.8851 11.0869Z" stroke="#D8DEFD" stroke-width="2"/>
</g>
</svg>

<svg width="27" height="24" fill="none" xmlns="http://www.w3.org/2000/svg"><g id="8665838_spa_relax_icon 1"><path id="Vector" d="M17.29 13.584l.008-.008.008-.007c2.963-2.853 6.849-3.438 8.666-3.546-.126 1.694-.77 5.22-3.793 7.896l-.017.016-.017.017c-3.605 3.509-7.122 3.507-8.582 3.506h-.167c-1.494.002-4.974.007-8.538-3.462l-.015-.014-.016-.014c-3.026-2.71-3.671-6.245-3.798-7.944 1.818.11 5.703.7 8.661 3.584l.016.015.016.015c1.418 1.268 2.289 2.709 2.853 4.081l.925 2.25.925-2.25a11.459 11.459 0 012.865-4.135zm-2.405-2.497c-.492.442-.956.921-1.386 1.437a14.656 14.656 0 00-1.423-1.487 14.583 14.583 0 00-2.31-1.82c.747-2.682 2.095-5.01 3.737-6.568 1.642 1.56 2.99 3.893 3.737 6.576a14.595 14.595 0 00-2.355 1.862z" stroke="#D8DEFD" stroke-width="2"/></g></svg>
